public/icons/svg/mail.svg

<svg fill="none" height="30" viewBox="0 0 40 30" width="40" xmlns="http://www.w3.org/2000/svg"><path d="m38 0h-36c-.39782 0-.77936.158036-1.06066.43934-.281305.281305-.43934.66284-.43934 1.06066v25.5c0 .7956.31607 1.5587.87868 2.1213s1.32567.8787 2.12132.8787h33c.7957 0 1.5587-.3161 2.1213-.8787s.8787-1.3257.8787-2.1213v-25.5c0-.39782-.158-.779355-.4393-1.06066-.2813-.281304-.6629-.43934-1.0607-.43934zm-3.8569 3-14.1431 12.9656-14.14313-12.9656zm2.3569 24h-33v-22.08937l15.4856 14.19557c.2768.2541.6387.395 1.0144.395s.7376-.1409 1.0144-.395l15.4856-14.19557z"/></svg>

<svg width="40" height="30" viewBox="0 0 40 30" fill="none" xmlns="http://www.w3.org/2000/svg">
<path d="M38 0H2C1.60218 0 1.22064 0.158036 0.93934 0.43934C0.658035 0.720645 0.5 1.10218 0.5 1.5V27C0.5 27.7956 0.81607 28.5587 1.37868 29.1213C1.94129 29.6839 2.70435 30 3.5 30H36.5C37.2957 30 38.0587 29.6839 38.6213 29.1213C39.1839 28.5587 39.5 27.7956 39.5 27V1.5C39.5 1.10218 39.342 0.720645 39.0607 0.43934C38.7794 0.158036 38.3978 0 38 0ZM34.1431 3L20 15.9656L5.85687 3H34.1431ZM36.5 27H3.5V4.91063L18.9856 19.1062C19.2624 19.3603 19.6243 19.5012 20 19.5012C20.3757 19.5012 20.7376 19.3603 21.0144 19.1062L36.5 4.91063V27Z" />
</svg>
